berloni/img/features/feature-2.svg

<svg width="70" height="80" viewBox="0 0 70 80" fill="none" xmlns="http://www.w3.org/2000/svg">
<path d="M67.8741 13.8142C56.8671 10.7983 45.7954 6.10221 35.8559 0.233789C35.3279 -0.0779295 34.6727 -0.0779295 34.1449 0.233789C23.9187 6.27081 13.4453 10.7128 2.12576 13.8142C1.39451 14.0144 0.887634 14.6791 0.887634 15.4374V32.632C0.887634 50.3387 9.05621 62.0593 15.909 68.7735C23.2865 76.0024 31.8802 80 35.0004 80C38.1202 80 46.714 76.0024 54.0914 68.7735C60.9441 62.0594 69.1122 50.3388 69.1122 32.632V15.4372C69.1122 14.6791 68.6053 14.0144 67.8741 13.8142Z" fill="#EE3425"/>
<path d="M23.5295 36.5655C22.4962 35.532 21.122 34.9633 19.6604 34.9633C18.1989 34.9633 16.8245 35.5322 15.7907 36.5655C13.6575 38.6992 13.6575 42.1711 15.7907 44.3047L25.7276 54.2412C26.761 55.2744 28.1352 55.8433 29.597 55.8433C31.0587 55.8433 32.4329 55.2743 33.4665 54.2409L54.2103 33.4969C56.3435 31.3627 56.3435 27.8913 54.21 25.7583C53.1766 24.7249 51.8024 24.1561 50.3405 24.1561C48.8788 24.1561 47.5046 24.725 46.471 25.7583L29.5968 42.6325L23.5295 36.5655Z" fill="white"/>
</svg>

<svg width="70" height="80" fill="none" xmlns="http://www.w3.org/2000/svg"><path d="M67.874 13.814C56.867 10.798 45.795 6.102 35.856.234a1.682 1.682 0 0 0-1.711 0c-10.226 6.037-20.7 10.479-32.02 13.58-.73.2-1.237.865-1.237 1.623v17.195c0 17.707 8.168 29.427 15.021 36.142C23.286 76.001 31.88 80 35 80c3.12 0 11.714-3.998 19.091-11.227 6.853-6.714 15.021-18.434 15.021-36.141V15.437c0-.758-.507-1.423-1.238-1.623z" fill="#EE3425"/><path d="M23.53 36.566a5.435 5.435 0 0 0-3.87-1.603 5.438 5.438 0 0 0-3.87 1.602 5.48 5.48 0 0 0 0 7.74l9.938 9.936a5.437 5.437 0 0 0 3.869 1.602 5.437 5.437 0 0 0 3.87-1.602L54.21 33.497a5.479 5.479 0 0 0 0-7.739 5.436 5.436 0 0 0-3.87-1.602 5.437 5.437 0 0 0-3.869 1.602L29.597 42.633l-6.068-6.068z" fill="#fff"/></svg>
